X: 2
T: Schottisch F Anm.
M:2/4
L:1/16
K:F %%MIDI gchordon
Ac |: "F"f6 ca | f6ac' | "C7"c2cc g2c'2 | "F"c2cc A2c2 | f6 fa | f6 f"_c"c' | "C7""_b"b2bb "_c"c2cc |1 
"F"f4 A2c2 :|2 "F"f4 z2 fa || [L:1/8] "F"cc/c/ c>c | c3 f/a/ | "G7"dd d>d | d2 zg | "C7"c'>g g>f | fe e2 | 
c'>e d>d | "F"d2 cf/a/ | c>c cc | c2 z f/"_a"a/ | "Gm""_d"d>d dd | "_d"d2 z"_a"a | "G7"g>g gg | g2 ag | 
"C"c2 "_c"c'"_b"b |: "F""_a"a2c2 | f2 ed | "C7""_e"e2 "_b"b2 | "_d"d3"_c"c | "_e"e2"_b"b2 | "_d"d2 "_c"c"_b"B | "F""_a"A2d2 | c3 a | 
c'3"_a"a | "_b"b2"_a"a2 | "Gm""_g"g2"_d"d'2 | "_g"g3"_f"f | "C7""_e"e2"_b"b2 | "_a"a2 g2 | ."F"f2 cd/e/ |1 .f2 "_c"c"_b"b :|2 ff/f/ .f2 |]    

